X: 3026
T: CRARAE
Q:"Reel."
R: Reel.
%R:reel
B: James Kerr "Merry Melodies" v.3 p.6 #26
Z: 2016 John Chambers <jc:trillian.mit.edu>
M: C
L: 1/8
K: D
|:\
FAAB d2(de) | fdgf edBd |\
FAAB defb | afef d/d/d d2 ::\
afef d2(BA) |
BdAd BdAb |\
[1 afef defd | BdAF E2(ea) :|\
[2 afef defb | afef d/d/d d2 |]

%%sep 1 1 500
%%sep 1 1 500

